X:1
T:Title
%%score { ( 1 4 5 ) | ( 2 3 ) }
L:1/8
M:4/4
K:Ab
V:1 treble nm="Grand Piano"
V:4 treble 
V:5 treble 
V:2 bass 
V:3 bass 
V:1
 z4 z2[Q:1/4=100] c2 | c2 e2 [DGB]2 [DGc]2 | [DGB]4 [CEA]2 .[A,EA]2 | z4 z2 .c2 | A4 G2 B2 | %5
 B2 cB B2 B2 | B2 cB B2 G2 | FGAB c2 [A=d]2 | [Ge]6 z2 | e4 z4 | B4 z4 | FG A2 FG A2 | %12
 c2 c2 c2 z2 | e4 z4 | f4 z4 | z4 e4 |[M:7/8] c2 [GB]2 A3 |] %17
V:2
 z4 z2 [A,CE]2 | [A,CE]2 [A,CE]2 E,2 E,2 | A,4 A,2 z G | D,2 C,2 z[K:treble] d[K:bass] [B,,B,]2 | %4
 C4 B,2 [E,G,E]2 | [F,A,=D]2 [F,A,D]2 [G,B,E]2 [G,B,E]2 | [F,A,=D]2 [F,A,D]2 [E,G,E]2 G,2 | %7
 F,G,A,B, C2 [F,B,]2 | [E,B,]6 z2 | [E,D]2 [E,D]2 [E,B,D]2 [E,B,D]2 | %10
 [A,,A,]2 [A,,A,]2 [A,,=D,A,]2 A,,2 | F,G, A,2 F,[K:treble]G, A,2 | C2 C2 C2 z2 | %13
 [A,C_G]2 [A,C]2 [A,EG]2 [A,CG]2 | [D,D]2 [D,D]2 [D,D]2 [D,D]2 | [A,CA]2 [B,DG]2 [CE_G]2 [DF]2 | %16
[M:7/8] [EA]2[K:bass] [E,D]2 [A,C]3 |] %17
V:3
 x8 | x8 | z4 z2 C,2 | z4 B,,2[K:treble][K:bass] z2 | [E,E]6 z2 | x8 | x8 | x8 | x8 | x8 | x8 | %11
 x5[K:treble] x3 | x8 | x8 | x8 | x8 |[M:7/8] x2[K:bass] x5 |] %17
V:4
 x8 | x8 | x8 | [A,DF]2 [=A,EF]2 .[B,DF]2 D-[DB] | x8 | x8 | x8 | x8 | x8 | G2 z d F2 G2 | %10
 D2 z A [_CF]2 [E,A,=CE]2 | x8 | x8 | z2 z c B2 A2 | F2 z d [Fc]2 [FB]2 | e2 e2 z2 z d | %16
[M:7/8] x7 |] %17
V:5
 x8 | x8 | x8 | x8 | x8 | x8 | x8 | x8 | x8 | z2 G2 z4 | z2 C2 z4 | x8 | x8 | z2 _G2 z4 | %14
 z2 F2 z4 | z4 z2 G2 |[M:7/8] x7 |] %17

